X:40
T:Smiling Dickey. VWMLa.040
%%VWML:Anon2-3049-p25-0
F:http://www.vwml.org/record/Anon2/3049/p25
S:Anon. MS, late 18thC, Vaughan Williams Mem. Library
N:I took the liberty of supplying bar 5 (not in MS). PJH.
O:England;Yorkshire
Z:vmp/efdss.Simon Wilson. Reviewed PJH 2008.
M:C
L:1/8
Q:2/4=90
K:D
A2|GFED GBAG|GFED d=cdA|GFED CDED|C2A,A,A,2A2|
GFED GBAG|GFED d=cdA|(3cde (3ABc (3Bcd (3^GAB|A2A>A A2:|
|:c2|dfdB cecA|BcdB B>AGF|GBGE FAFD|C2A,A, A,2c2|\
dfdB cecA|B>cdB B>Abg|g>fed f>edc|d2d>d d2:|
T:Dusty Miller. VWMLa.041
R:thp
S:Anon. MS, late 18thC, Vaughan Williams Mem. Library
O:England;Yorkshire
Z:vmp/efdss.Simon Wilson. Reviewed PJH 2008.
M:3/2
L:1/4
Q:1/2=140
K:G
B>cdBAG|FAAcBA|B>cdBAG|DGGBAG:|\
|:B>cdefg|aAAcBA|B>cdefd|gG-GBAG:|
